modules/hawcons-filled/icons/icon-119-lock-rounded-open.svg

<?xml version="1.0" encoding="UTF-8" standalone="no"?>
<svg width="32px" height="32px" viewBox="0 0 32 32" version="1.1" xmlns="http://www.w3.org/2000/svg" xmlns:xlink="http://www.w3.org/1999/xlink" xmlns:sketch="http://www.bohemiancoding.com/sketch/ns">
    <!-- Generator: Sketch 3.0.3 (7891) - http://www.bohemiancoding.com/sketch -->
    <title>icon 119 lock rounded open</title>
    <desc>Created with Sketch.</desc>
    <defs></defs>
    <g id="Page-1" stroke="none" stroke-width="1" fill="none" fill-rule="evenodd" sketch:type="MSPage">
        <g id="icon-119-lock-rounded-open" sketch:type="MSArtboardGroup" fill="#929292">
            <path d="M21,23.9146472 L21,26.5089948 C21,26.7801695 21.2319336,27 21.5,27 C21.7761424,27 22,26.7721195 22,26.5089948 L22,23.9146472 C22.5825962,23.708729 23,23.1531095 23,22.5 C23,21.6715728 22.3284272,21 21.5,21 C20.6715728,21 20,21.6715728 20,22.5 C20,23.1531095 20.4174038,23.708729 21,23.9146472 L21,23.9146472 L21,23.9146472 Z M14,8.49991749 C14,6.01468168 11.9802243,4 9.5,4 C7.01471863,4 5,6.01688111 5,8.49991749 L5,10 L5,12.4991673 C5,13.3214545 4.32842712,14 3.5,14 C2.66579723,14 2,13.3280543 2,12.4991673 L2,10 L2,8.499235 C2,4.35670485 5.35786438,1 9.5,1 C13.6337072,1 17,4.35752188 17,8.499235 L17,16 L28.991212,16 C30.6544098,16 32,17.347389 32,19.0094776 L32,24 C32,28.4092877 28.4186782,32 24.0008939,32 L18.9991061,32 C14.5861677,32 11,28.418278 11,24 L11,19.0094776 C11,17.339581 12.3423335,16.0047152 14,16.0000125 L14,8.49991749 L14,8.49991749 Z" id="lock-rounded-open" sketch:type="MSShapeGroup"></path>
        </g>
    </g>
</svg>

<svg width="32" height="32" xmlns="http://www.w3.org/2000/svg"><path d="M21 23.915v2.594a.5.5 0 0 0 1 0v-2.594a1.5 1.5 0 1 0-1 0zM14 8.5C14 6.015 11.98 4 9.5 4A4.501 4.501 0 0 0 5 8.5v4c0 .821-.672 1.5-1.5 1.5-.834 0-1.5-.672-1.5-1.5v-4a7.5 7.5 0 1 1 15 0V16h11.991A3.008 3.008 0 0 1 32 19.01V24c0 4.41-3.581 8-8 8h-5c-4.414 0-8-3.582-8-8v-4.99A3.002 3.002 0 0 1 14 16V8.5z" fill="#929292" fill-rule="evenodd"/></svg>
